img/offer/icon1.svg

<svg width="70" height="69" viewBox="0 0 70 69" fill="none" xmlns="http://www.w3.org/2000/svg">
<path fill-rule="evenodd" clip-rule="evenodd" d="M37.9221 2.42304C31.7408 3.30791 27.9388 3.90756 27.6901 4.03713C27.4724 4.15059 21.579 9.89254 14.5937 16.7971C2.88943 28.366 1.86037 29.4182 1.47594 30.2094C0.383503 32.4581 0.402771 34.7562 1.53202 36.9178C1.99113 37.7966 2.8198 38.6498 12.7343 48.4532C18.6227 54.2758 23.7458 59.2728 24.1187 59.5576L24.7968 60.0757L24.8752 61.2211C25.0833 64.265 26.9665 66.7113 29.8603 67.6971L30.7493 68H46.7618H62.7744L63.6633 67.6971C65.8373 66.9566 67.4617 65.3681 68.3216 63.142L68.6212 62.3664L68.6573 44.2524C68.6899 27.7305 68.6741 26.1021 68.4768 25.726C68.3577 25.4991 66.7537 23.333 64.9122 20.9125C63.0708 18.4919 61.5167 16.4343 61.4589 16.3401C61.4011 16.2458 61.426 15.6674 61.5142 15.0546C61.7531 13.3948 61.683 13.27 59.0569 10.6845L56.8645 8.52593L59.0495 6.35818C61.7173 3.7113 61.9561 3.27502 61.3791 2.09996C60.9123 1.14919 59.7579 0.737807 58.8062 1.18299C58.575 1.29121 57.4013 2.35177 56.1981 3.53967L54.0103 5.69957L51.7482 3.48294C50.504 2.26373 49.3176 1.2033 49.1119 1.12626C48.9062 1.04936 48.5175 0.992761 48.2482 1.00075C47.9788 1.00861 43.3321 1.64875 37.9221 2.42304ZM49.3884 6.78581L51.1475 8.52371L49.7528 9.89424L48.3579 11.2648L47.5267 10.4639C46.5304 9.50382 46.289 9.37111 45.5414 9.37176C44.0784 9.37294 43.1309 10.88 43.7874 12.1618C44.0705 12.7148 49.3183 17.9423 50.0768 18.4268C51.6569 19.4364 53.4313 18.2127 53.0781 16.357C53.0115 16.0066 52.7461 15.6298 52.1062 14.976L51.2258 14.077L52.6162 12.7062L54.0067 11.3354L55.7593 13.0719L57.5119 14.8083L56.223 23.6844L54.9342 32.5604L42.7753 44.557C35.6283 51.6087 30.3973 56.67 30.0849 56.8359C29.3855 57.2072 27.9101 57.2303 27.2279 56.8806C26.5805 56.5487 5.35761 35.6432 4.99936 34.9845C4.61679 34.2808 4.59592 32.8499 4.9575 32.1022C5.12826 31.7489 9.1658 27.6714 17.3453 19.5919L29.4798 7.60569L38.3534 6.34062C43.2338 5.64481 47.3174 5.06926 47.4281 5.06166C47.5388 5.05406 48.4209 5.82993 49.3884 6.78581ZM34.4634 15.9753C34.2406 16.0709 33.902 16.3323 33.7112 16.5559C33.4515 16.8601 32.1518 20.5496 28.5582 31.1826C23.408 46.4216 23.6064 45.7187 24.1881 46.6636C24.8586 47.753 26.7026 47.7535 27.4263 46.6646C27.7335 46.2022 37.1942 18.1577 37.1942 17.7091C37.1942 17.1012 36.6794 16.3463 36.0647 16.0529C35.4306 15.7503 35.0322 15.7309 34.4634 15.9753ZM64.7012 44.261C64.7012 63.45 64.7717 62.1073 63.708 63.1559C62.651 64.1981 63.7407 64.1351 46.7618 64.1351C29.783 64.1351 30.8727 64.1981 29.8157 63.1559C29.3547 62.7015 28.8225 61.6771 28.8225 61.2443C28.8225 61.1933 29.1065 61.1113 29.4537 61.0622C30.4191 60.9256 31.27 60.6525 32.1805 60.187C32.8967 59.8208 34.7234 58.0766 45.7329 47.245C55.9476 37.1957 58.4951 34.6226 58.6483 34.2004C58.7533 33.9111 59.2056 31.0803 59.6534 27.9097C60.1013 24.7392 60.4945 22.0635 60.5273 21.9638C60.5613 21.8607 61.473 22.9459 62.6441 24.4838L64.7012 27.1851V44.261ZM18.0733 25.8897C15.9404 26.3027 14.0194 28.0768 13.48 30.1317C12.9166 32.2785 13.5344 34.4005 15.1656 35.9217C16.707 37.3588 18.7235 37.866 20.7884 37.3359C23.6859 36.592 25.6334 33.609 25.1093 30.7173C24.5123 27.4233 21.3519 25.2548 18.0733 25.8897ZM40.4444 25.9307C38.7152 26.3449 37.2366 27.5205 36.436 29.1177C35.9968 29.9938 35.9369 30.2353 35.8886 31.3229C35.8452 32.3008 35.8902 32.7254 36.1147 33.4537C37.397 37.6165 42.8266 38.9163 45.9822 35.8161C48.2899 33.5488 48.3109 29.95 46.0303 27.5927C44.5764 26.0899 42.4371 25.4535 40.4444 25.9307ZM20.2983 30.0373C21.2156 30.7125 21.4553 31.6268 20.9559 32.547C20.2595 33.8305 18.484 33.9649 17.6179 32.7997C17.2397 32.291 17.1831 31.2962 17.5 30.7298C18.0342 29.7751 19.462 29.4216 20.2983 30.0373ZM42.9295 30.0864C43.4479 30.4503 43.7277 31.0311 43.7277 31.7433C43.7277 33.1526 42.0377 34.0831 40.8141 33.3475C39.6193 32.6294 39.5109 30.8688 40.614 30.0971C40.8161 29.9556 41.101 29.808 41.2472 29.7688C41.6975 29.6481 42.5288 29.8051 42.9295 30.0864Z" fill="url(#paint0_linear_3002_1135)" stroke="#151515"/>
<defs>
<linearGradient id="paint0_linear_3002_1135" x1="0.670609" y1="1" x2="68.9982" y2="70.6873" gradientUnits="userSpaceOnUse">
<stop stop-color="#0ABD92"/>
<stop offset="1" stop-color="#009DB8"/>
</linearGradient>
</defs>
</svg>

<svg width="70" height="69" fill="none" xmlns="http://www.w3.org/2000/svg"><path fill-rule="evenodd" clip-rule="evenodd" d="M37.922 2.423c-6.181.885-9.983 1.485-10.232 1.614-.218.114-6.111 5.856-13.096 12.76C2.889 28.366 1.86 29.418 1.476 30.21c-1.092 2.25-1.073 4.547.056 6.709.46.879 1.288 1.732 11.202 11.535 5.889 5.823 11.012 10.82 11.385 11.105l.678.518.078 1.145c.208 3.044 2.091 5.49 4.985 6.476l.89.303h32.024l.89-.303c2.173-.74 3.798-2.329 4.658-4.555l.3-.776.035-18.114c.033-16.522.017-18.15-.18-18.526-.12-.227-1.723-2.393-3.565-4.813-1.841-2.421-3.395-4.479-3.453-4.573-.058-.094-.033-.673.055-1.285.24-1.66.169-1.785-2.457-4.37l-2.193-2.16 2.186-2.167c2.667-2.647 2.906-3.083 2.33-4.258a1.96 1.96 0 00-2.574-.917c-.231.108-1.405 1.169-2.608 2.357L54.01 5.7l-2.262-2.217c-1.244-1.22-2.43-2.28-2.636-2.357a2.738 2.738 0 00-.864-.125c-.27.008-4.916.648-10.326 1.422zm11.466 4.363l1.76 1.738-1.395 1.37-1.395 1.37-.831-.8c-.997-.96-1.238-1.093-1.986-1.092-1.463 0-2.41 1.508-1.754 2.79.284.553 5.531 5.78 6.29 6.265 1.58 1.01 3.354-.214 3.001-2.07-.067-.35-.332-.727-.972-1.381l-.88-.899 1.39-1.37 1.39-1.372 1.753 1.737 1.753 1.736-1.289 8.876-1.289 8.876-12.159 11.997c-7.147 7.052-12.378 12.113-12.69 12.279-.7.371-2.175.394-2.857.045-.648-.332-21.87-21.238-22.229-21.897-.382-.703-.403-2.134-.042-2.882.171-.353 4.209-4.43 12.388-12.51L29.48 7.606l8.873-1.265c4.88-.696 8.964-1.272 9.075-1.28.11-.007.993.769 1.96 1.725zm-14.925 9.19c-.222.095-.561.356-.752.58-.26.304-1.56 3.994-5.153 14.627-5.15 15.239-4.952 14.536-4.37 15.48.67 1.09 2.515 1.09 3.238.002.308-.463 9.768-28.507 9.768-28.956 0-.608-.515-1.363-1.13-1.656-.633-.303-1.032-.322-1.6-.078zM64.701 44.26c0 19.189.07 17.846-.993 18.895-1.057 1.042.033.98-16.946.98-16.979 0-15.89.062-16.946-.98-.461-.454-.993-1.479-.993-1.912 0-.05.284-.133.63-.182a8.346 8.346 0 002.728-.875c.716-.366 2.542-2.11 13.552-12.942C55.948 37.195 58.495 34.623 58.648 34.2c.105-.289.558-3.12 1.005-6.29.448-3.17.842-5.846.874-5.946.034-.103.946.982 2.117 2.52l2.057 2.701v17.076zM18.073 25.89c-2.133.413-4.054 2.187-4.593 4.242-.563 2.146.054 4.268 1.686 5.79 1.541 1.437 3.558 1.944 5.622 1.414 2.898-.744 4.845-3.727 4.321-6.619a5.993 5.993 0 00-7.036-4.827zm22.371.04a6.094 6.094 0 00-4.008 3.188c-.44.876-.5 1.117-.547 2.205-.044.978.001 1.402.226 2.13 1.282 4.163 6.712 5.463 9.867 2.363 2.308-2.267 2.329-5.866.048-8.223-1.454-1.503-3.593-2.14-5.586-1.662zm-20.146 4.107c.918.675 1.157 1.59.658 2.51-.697 1.284-2.472 1.418-3.338.253-.378-.509-.435-1.504-.118-2.07.534-.955 1.962-1.308 2.798-.693zm22.631.05c.519.363.799.944.799 1.656 0 1.41-1.69 2.34-2.914 1.604-1.195-.718-1.303-2.478-.2-3.25.202-.141.487-.289.633-.328.45-.12 1.282.036 1.682.317z" fill="url(#paint0_linear_3002_1135)" stroke="#151515"/><defs><linearGradient id="paint0_linear_3002_1135" x1=".671" y1="1" x2="68.998" y2="70.687" gradientUnits="userSpaceOnUse"><stop stop-color="#0ABD92"/><stop offset="1" stop-color="#009DB8"/></linearGradient></defs></svg>
